brandFactory_export/1.Light/Arbol 2 _1Light.svg

<?xml version="1.0" encoding="UTF-8"?>
<svg width="24px" height="24px" viewBox="0 0 24 24" version="1.1" xmlns="http://www.w3.org/2000/svg" xmlns:xlink="http://www.w3.org/1999/xlink">
    <title>1.Light/Arbol 2 _1Light</title>
    <g id="Symbols" stroke="none" stroke-width="1" fill="none" fill-rule="evenodd">
        <g id="1.Light/Arbol-2-_1Light" fill="#5CB615" fill-rule="nonzero">
            <path d="M13.1865546,13.7159664 L11.6806723,13.7260504 C11.6672269,13.7260504 11.6571429,13.7327731 11.6470588,13.7361345 L11.6470588,12.707563 C11.6537815,12.7008403 11.6638655,12.697479 11.6705882,12.687395 L12.4504202,11.6252101 C12.497479,11.5613445 12.4840336,11.4672269 12.4201681,11.4201681 C12.3563025,11.3731092 12.2621849,11.3865546 12.2151261,11.4504202 L11.6504202,12.2201681 L11.6504202,11.6218487 C11.6537815,11.5411765 11.589916,11.4739496 11.5092437,11.4705882 C11.4285714,11.4672269 11.3613445,11.5310924 11.3579832,11.6117647 L11.3579832,13.1008403 L10.6756303,12.4084034 C10.6184874,12.3512605 10.5277311,12.3512605 10.4705882,12.4084034 C10.4134454,12.4655462 10.4134454,12.5596639 10.4705882,12.6168067 L11.3411765,13.5042017 C11.3445378,13.507563 11.3512605,13.507563 11.3546218,13.5142857 L11.3546218,13.7294118 L9.52941176,13.7294118 C9.16638655,13.7294118 8.31932773,13.6117647 8.31932773,12.5159664 C8.31932773,11.9008403 8.58487395,11.5142857 9.10252101,11.3663866 C9.16638655,11.3495798 9.20672269,11.2521008 9.20672269,11.1848739 C9.20672269,9.43361345 10.7260504,9.29579832 11.189916,9.29579832 C11.4521008,9.29579832 12.7831933,9.35630252 13.0991597,10.5462185 C13.1159664,10.610084 13.1731092,10.6537815 13.2369748,10.6571429 C13.6840336,10.6705882 14.7294189,10.8453782 14.7294189,12.1798319 C14.7327731,13.605042 13.5495798,13.7159664 13.1865546,13.7159664 M13.3546218,10.3647059 C12.9378151,9.06722689 11.4857143,9 11.1932773,9 C10.8168067,9 8.95462185,9.10084034 8.91764706,11.1142857 C8.54117647,11.2521008 8.02689076,11.605042 8.02689076,12.5159664 C8.02689076,13.6285714 8.80336134,14.0218487 9.52941176,14.0218487 L11.3546218,14.0218487 L11.3546218,15.8504202 C11.3613445,15.9310924 11.4319328,15.9915966 11.512605,15.9848739 C11.5831933,15.9781513 11.6403361,15.9210084 11.6470588,15.8504202 L11.6470588,14.0151261 C11.6605042,14.0184874 11.6705882,14.0252101 11.6840336,14.0252101 L13.1865546,14.0151261 C14.0336134,14.0151261 15.0252101,13.5344538 15.0252101,12.1798319 C15.0252101,10.6571429 13.8588235,10.4016807 13.3546218,10.3647059" id="Arbol-2-_1Light"></path>
        </g>
    </g>
</svg>

<svg width="24" height="24" viewBox="0 0 24 24" xmlns="http://www.w3.org/2000/svg"><path d="M13.187 13.716l-1.506.01c-.014 0-.024.007-.034.01v-1.028c.007-.007.017-.01.024-.02l.78-1.063a.149.149 0 00-.03-.205.149.149 0 00-.206.03l-.565.77v-.598a.146.146 0 00-.292-.01V13.1l-.682-.693a.144.144 0 00-.205 0 .148.148 0 000 .209l.87.887c.004.004.01.004.014.01v.215H9.529c-.363 0-1.21-.117-1.21-1.213 0-.615.266-1.002.784-1.15.063-.016.104-.114.104-.181 0-1.751 1.52-1.89 1.983-1.89.262 0 1.593.061 1.91 1.251a.15.15 0 00.137.111c.447.014 1.492.188 1.492 1.523.004 1.425-1.18 1.536-1.542 1.536m.168-3.351C12.938 9.067 11.485 9 11.193 9c-.376 0-2.238.1-2.275 2.114-.377.138-.891.491-.891 1.402 0 1.113.776 1.506 1.502 1.506h1.826v1.828c.006.081.077.142.158.135a.15.15 0 00.134-.135v-1.835c.014.003.024.01.037.01l1.503-.01c.847 0 1.838-.48 1.838-1.835 0-1.523-1.166-1.778-1.67-1.815" fill="#5CB615" fill-rule="nonzero"/></svg>
